epam-assets/icon-sources/18/internal-logo/learn_studio.svg

<svg width="18" height="18" viewBox="0 0 18 18" fill="none" xmlns="http://www.w3.org/2000/svg">
<g id="18/internal-logo/learn_studio">
<path id="icon" fill-rule="evenodd" clip-rule="evenodd" d="M6.14876 9.10121L5.85303 9.39694C6.61657 10.2771 7.74365 10.8334 8.9999 10.8334C11.3009 10.8334 13.1666 8.96777 13.1666 6.66673C13.1666 5.41048 12.6103 4.2834 11.7301 3.51986L11.4344 3.81559C12.2392 4.5034 12.7499 5.52517 12.7499 6.66673C12.7499 8.73777 11.0709 10.4167 8.9999 10.4167C7.85834 10.4167 6.83657 9.906 6.14876 9.10121ZM9.20833 4.16673C9.20833 4.05173 9.115 3.9584 9 3.9584C7.50656 3.9584 6.29167 5.17339 6.29167 6.66673C6.29167 6.78183 6.3849 6.87506 6.5 6.87506C6.615 6.87506 6.70833 6.78183 6.70833 6.66673C6.70833 5.40308 7.73635 4.37506 9 4.37506C9.115 4.37506 9.20833 4.28183 9.20833 4.16673ZM12.3208 2.92923C13.3509 3.84486 14 5.18027 14 6.66673C14 9.28777 11.983 11.4362 9.41665 11.6481V12.0834H11.0833C11.3134 12.0834 11.5 12.27 11.5 12.5001C11.5 12.7302 11.3134 12.9167 11.0833 12.9167H6.91665C6.68655 12.9167 6.49998 12.7302 6.49998 12.5001C6.49998 12.27 6.68655 12.0834 6.91665 12.0834H8.58332V11.6477C7.2654 11.5388 6.09155 10.9204 5.26248 9.98757C5.13019 9.83965 5.00832 9.68444 4.89478 9.52194L5.7978 8.61892C5.4504 8.05017 5.24998 7.38194 5.24998 6.66673C5.24998 4.59569 6.92894 2.91673 8.99998 2.91673C9.71519 2.91673 10.3834 3.11715 10.9522 3.46454L11.2542 3.16257L11.8552 2.56152C12.0177 2.67507 12.1729 2.79694 12.3208 2.92923ZM2.33333 6.04175C2.33333 5.69664 2.61323 5.41675 2.95833 5.41675H4.83333V6.25008H3.16667V13.3334H2.33333V6.04175ZM10.6574 13.7604L16.1575 13.7669C16.329 13.7492 16.4824 13.874 16.5 14.0458L16.4849 14.6876C16.4849 14.8602 16.3451 15.0001 16.1727 15.0001H1.81219C1.63979 15.0001 1.5 14.8602 1.5 14.6876V14.0626C1.5 13.89 1.63979 13.7501 1.81219 13.7501L7.3274 13.7565V13.8542C7.3274 14.0269 7.46719 14.1667 7.63969 14.1667H10.3452C10.5176 14.1667 10.6574 14.0269 10.6574 13.8542V13.7604ZM15.0417 5.41675H14.4167V6.25008H14.8333V13.3334H15.6667V6.04175C15.6667 5.69664 15.3868 5.41675 15.0417 5.41675Z" fill="#6C6F80"/>
</g>
</svg>

<svg xmlns="http://www.w3.org/2000/svg" width="18" height="18" fill="none" viewBox="0 0 18 18">
  <path fill="#6C6F80" fill-rule="evenodd" d="m6.149 9.101-.296.296A4.167 4.167 0 1 0 11.73 3.52l-.296.296a3.75 3.75 0 1 1-5.286 5.286Zm3.06-4.934A.208.208 0 0 0 9 3.958a2.711 2.711 0 0 0-2.708 2.709.208.208 0 1 0 .416 0A2.294 2.294 0 0 1 9 4.375a.208.208 0 0 0 .208-.208Zm3.112-1.238a5 5 0 0 1-2.904 8.719v.435h1.666a.417.417 0 0 1 0 .834H6.917a.417.417 0 1 1 0-.834h1.666v-.435a4.987 4.987 0 0 1-3.688-2.126l.903-.903a3.75 3.75 0 0 1 5.154-5.154l.302-.302.601-.601c.163.113.318.235.466.367ZM2.333 6.042c0-.345.28-.625.625-.625h1.875v.833H3.167v7.083h-.834V6.042Zm8.324 7.718 5.5.007a.312.312 0 0 1 .343.279l-.015.642c0 .172-.14.312-.312.312H1.813a.312.312 0 0 1-.313-.312v-.625c0-.173.14-.313.312-.313l5.515.007v.097c0 .173.14.313.313.313h2.705c.173 0 .312-.14.312-.313v-.094Zm4.385-8.343h-.625v.833h.416v7.083h.834V6.042a.625.625 0 0 0-.625-.625Z" clip-rule="evenodd"/>
</svg>
